modules/zondicons/icons/network.svg

<?xml version="1.0" encoding="UTF-8" standalone="no"?>
<svg width="20px" height="20px" viewBox="0 0 20 20" version="1.1" xmlns="http://www.w3.org/2000/svg" xmlns:xlink="http://www.w3.org/1999/xlink">
    <!-- Generator: Sketch 3.7.2 (28276) - http://www.bohemiancoding.com/sketch -->
    <title>network</title>
    <desc>Created with Sketch.</desc>
    <defs></defs>
    <g id="Page-1" stroke="none" stroke-width="1" fill="none" fill-rule="evenodd">
        <g id="network" fill="#000000">
            <path d="M17.747965,12 C17.912494,11.3607602 18,10.6905991 18,10 C18,9.30940086 17.912494,8.63923984 17.747965,8 L13.9319635,8 C13.9770158,8.64627227 14,9.31512813 14,10 C14,10.6848719 13.9770158,11.3537277 13.9319635,12 L17.747965,12 L17.747965,12 Z M16.9297424,14 C15.9997274,15.6077187 14.5262862,16.8617486 12.7605851,17.5109236 C13.1807787,16.5491202 13.5012461,15.3524505 13.7109556,14 L16.9297424,14 L16.9297424,14 Z M8.08134222,12 C8.02912147,11.3608387 8,10.6906922 8,10 C8,9.30930775 8.02912147,8.63916129 8.08134222,8 L11.9186578,8 C11.9708785,8.63916129 12,9.30930775 12,10 C12,10.6906922 11.9708785,11.3608387 11.9186578,12 L8.08134222,12 L8.08134222,12 Z M8.33245212,14 C8.74471091,16.3918507 9.45909367,18 10,18 C10.5409063,18 11.2552891,16.3918507 11.6675479,14 L8.33245212,14 L8.33245212,14 Z M2.25203497,12 C2.08750601,11.3607602 2,10.6905991 2,10 C2,9.30940086 2.08750601,8.63923984 2.25203497,8 L6.06803651,8 C6.02298421,8.64627227 6,9.31512813 6,10 C6,10.6848719 6.02298421,11.3537277 6.06803651,12 L2.25203497,12 L2.25203497,12 Z M3.07025756,14 C4.00027261,15.6077187 5.47371379,16.8617486 7.23941494,17.5109236 C6.81922128,16.5491202 6.49875389,15.3524505 6.28904438,14 L3.07025756,14 L3.07025756,14 Z M16.9297424,6 C15.9997274,4.39228131 14.5262862,3.13825137 12.7605851,2.48907637 C13.1807787,3.45087984 13.5012461,4.64754949 13.7109556,6 L16.9297424,6 L16.9297424,6 Z M8.33245212,6 C8.74471091,3.60814928 9.45909367,2 10,2 C10.5409063,2 11.2552891,3.60814928 11.6675479,6 L8.33245212,6 L8.33245212,6 Z M3.07025756,6 C4.00027261,4.39228131 5.47371379,3.13825137 7.23941494,2.48907637 C6.81922128,3.45087984 6.49875389,4.64754949 6.28904438,6 L3.07025756,6 L3.07025756,6 Z M10,20 C15.5228475,20 20,15.5228475 20,10 C20,4.4771525 15.5228475,0 10,0 C4.4771525,0 0,4.4771525 0,10 C0,15.5228475 4.4771525,20 10,20 L10,20 Z" id="Combined-Shape"></path>
        </g>
    </g>
</svg>

<svg width="20" height="20" viewBox="0 0 20 20" xmlns="http://www.w3.org/2000/svg"><path d="M17.748 12c.164-.64.252-1.31.252-2s-.088-1.36-.252-2h-3.816c.045.646.068 1.315.068 2s-.023 1.354-.068 2h3.816zm-.818 2a8.027 8.027 0 0 1-4.17 3.51c.42-.96.741-2.158.951-3.51h3.219zM8.08 12a24.61 24.61 0 0 1 0-4h3.838a24.61 24.61 0 0 1 0 4H8.08zm.251 2c.413 2.392 1.127 4 1.668 4 .54 0 1.255-1.608 1.668-4H8.332zm-6.08-2A8.014 8.014 0 0 1 2 10c0-.69.088-1.36.252-2h3.816A28.81 28.81 0 0 0 6 10c0 .685.023 1.354.068 2H2.252zm.818 2a8.027 8.027 0 0 0 4.17 3.51c-.42-.96-.741-2.158-.951-3.51H3.07zm13.86-8a8.027 8.027 0 0 0-4.17-3.51c.42.96.741 2.158.951 3.51h3.219zM8.332 6C8.745 3.608 9.46 2 10 2c.54 0 1.255 1.608 1.668 4H8.332zM3.07 6a8.027 8.027 0 0 1 4.17-3.51c-.42.96-.741 2.158-.951 3.51H3.07zM10 20c5.523 0 10-4.477 10-10S15.523 0 10 0 0 4.477 0 10s4.477 10 10 10z" fill="#000" fill-rule="evenodd"/></svg>
